X: 463
T: Bâdeler Döndükçe Artar...
C: Selânikli Ahmed Bey
O: Turkey
F: http://compmusic.upf.edu/node/140
N: mahur--sarki--agiraksak--badeler_dondukce--selanikli_ahmed_bey
N: makam= mahur
N: form= sarki
N: usul= agiraksak = 9/4
M: 9/4
L: 1/16
K: C ^9/8f   
Q: 1/4=72
%%MIDI tuningsystem comma53
d2g4b2 a3g f2b2 a3g f2a2 g4 d2ef g4  | \
w:  ARANAĞME  | 
fga4ag c'2ba g2fe e6a2 e3d edcd e4  | 
w:   | 
g2fe d2ef g2fe d2e2 d3c edcB c4 BcdB c4  | 
w:   | 
B2c2 B2c2 B2cd cBA2 A3G B2AG G4 d2ef g4  | \
w:   | 
d2g4b2 a3g f2b2 a3g f2a2 g4 d2ef g4  | 
w:  ARANAĞME  | 
fga4ag c'2ba g2fe e6a2 e3d edcd e4  | \
w:   | 
g2fe d2ef g2fe d2e2 d3c edcB c4 BcdB c4  | 
w:   | 
B2c2 B2c2 B2cd cBA2 A3G B2AG G8 z4  | \
w:   | 
z8 z2b2 a2g2 g2a2 g2f2 f2g2 f2e2 f2g2  | 
w:  Bâ *  de ler  *  *  *  dön  | 
f2a2 g2f4a2 g2g2 g2f2 f2e2 e2fe d3e f3e  | \
w:  *  *  *  *  dük *  çe  ar *  *  *  tar   | 
fed6 z2e4f2 g2f2 g2a2 b2a2 g2f2 e2d2  | 
w:  *  *  *  bezm_ i  ıy *  *  *  şın   | 
d2g4a2 a2b4ag fed2 b2ag g6d2 e2f2  | \
w:  *  neş *  *  *  *  *  *  *  *  *  e *  si   SAZ  | 
g3a gfg2 z2g4a2 a8 (3c'2b2a2 (3g2f2e2 a2e2  | 
w:  *  *  *  *  *  Çın la tır ken   | 
e3d e2d2 z2g4g2 g2=f2 e2d2 d3c B4 g^9/8fef  | \
w:  *  *  *  *  bağ la rı  *  *  *  Mâ  | 
g8-g2a2 g2=f2 f2e2 e2d2 d2ed dccB c4  | 
w:  *  hur *  *  dan  *  *  *  na  | 
B2c2 B2c2 B2cd cBA2 A3G B2AG G6d2 e2f2  | \
w:  zik  *  *  *  *  *  *  *  *  *  *  *  *  se *  si   SAZ  | 
g3a gfg2 z2g4a2 a8 (3c'2b2a2 (3g2f2e2 a2e2  | 
w:  *  *  *  *  *  Çın la tır ken   | 
e3d e2d2 z2g4g2 g2=f2 e2d2 d3c B4 g^9/8fef  | \
w:  *  *  *  *  bağ la rı  *  *  *  Mâ  | 
g8-g2a2 g2=f2 f2e2 e2d2 d2ed dccB c4  | 
w:  *  hur *  *  dan  *  *  *  na  | 
B2c2 B2c2 B2cd cBA2 A3G B2AG G6c'2 c'_1/4bb^a  | 
w:  zik  *  *  *  *  *  *  *  *  *  *  *  *  se *  si   SAZ  | 
b3c' b^ab2 z2g2 b2b2 b8 c'2b2 a2g2 ^f2_1/4e2  | \
w:  *  *  *  *  *  Sî *  ne ler  tan  | 
^f2g2 f_1/4e^de f2gf e2e2 edc6 _1/4Bc=de =f2e^d dccB  | 
w:  *  *  *  *  *  *  *  bur  *  *  i le  *  *  fer  | 
_1/4e4 ^dc_1/4B^A B2_1/4b2 d'2d'2 d'2c'2 b2a2 a2ba g2f2 e2=d2  | \
w:  *  *  *  *  *  *  yâd  *  e der   | 
d2g4a2 a2b4ag fed2 b2ag g6d2 e2f2  | 
w:  *  sub *  *  *  *  *  *  *  *  *  ha  *  dek    | 
g3a gfg2 z2g4a2 a8 (3c'2b2a2 (3g2f2e2 a2e2  | \
w:  *  *  *  *  *  Çın la tır ken   | 
e3d e2d2 z2g4g2 g2=f2 e2d2 d3c B4 g^9/8fef  | 
w:  *  *  *  *  bağ la rı  *  *  *  Mâ  | 
g8-g2a2 g2=f2 f2e2 e2d2 d2ed dccB c4  | \
w:  *  hur *  *  dan  *  *  *  na  | 
B2c2 B2c2 B2cd cBA2 A3G B2AG G6d2 e2f2  | 
w:  zik  *  *  *  *  *  *  *  *  *  *  *  *  se *  si   SAZ  | 
g3a gfg2 z2g4a2 a8 (3c'2b2a2 (3g2f2e2 a2e2  | \
w:  *  *  *  *  *  Çın la tır ken   | 
e3d e2d2 z2g4g2 g2=f2 e2d2 d3c B4 g^9/8fef  | 
w:  *  *  *  *  bağ la rı  *  *  *  Mâ  | 
g8-g2a2 g2=f2 f2e2 e2d2 d2ed dccB c4  | \
w:  *  hur *  *  dan  *  *  *  na  | 
B2c2 B2c2 B2cd cBA2 A3G B2AG G6|
w:  zik  *  *  *  *  *  *  *  *  *  *  *  *  se *  si    | 


